dist/img/sprites/warning.svg

<svg width="25" height="26" viewBox="0 0 25 26" fill="none" xmlns="http://www.w3.org/2000/svg">
<rect y="0.5" width="25" height="25" rx="5" fill="#FA421A"/>
<path d="M13.4184 15.9174H11.6122L11.1224 5H13.9082L13.4184 15.9174ZM11 19.3774C11 18.79 11.1429 18.3781 11.4286 18.1417C11.7211 17.8981 12.0782 17.7764 12.5 17.7764C12.915 17.7764 13.2687 17.8981 13.5612 18.1417C13.8537 18.3781 14 18.79 14 19.3774C14 19.9505 13.8537 20.366 13.5612 20.6239C13.2687 20.8746 12.915 21 12.5 21C12.0782 21 11.7211 20.8746 11.4286 20.6239C11.1429 20.366 11 19.9505 11 19.3774Z" fill="white"/>
</svg>

<svg width="25" height="26" viewBox="0 0 25 26" fill="none" xmlns="http://www.w3.org/2000/svg"><rect y=".5" width="25" height="25" rx="5" fill="#FA421A"/><path d="M13.418 15.917h-1.806L11.122 5h2.786l-.49 10.917zM11 19.377c0-.587.143-.999.429-1.235.292-.244.65-.366 1.071-.366a1.6 1.6 0 011.061.366c.293.236.439.648.439 1.235 0 .574-.146.989-.439 1.247-.292.25-.646.376-1.061.376-.422 0-.779-.125-1.071-.376-.286-.258-.429-.673-.429-1.247z" fill="#fff"/></svg>
